lib/brands/icons/western-union.svg

<svg xmlns="http://www.w3.org/2000/svg" fill="none" aria-hidden="true" viewBox="0 0 48 48"><g id="western_union-Icon"><circle id="bg" cx="24" cy="24" r="21" fill="#0B0006"/><g id="slash"><path fill="#FFFDFE" d="M6 18H6.95304L10.6699 31.125H9.71686L6 18Z"/><path fill="#FFFDFE" d="M8.57318 18H9.52622L13.2431 31.125H12.29L8.57318 18Z"/></g><g id="wu"><path fill="#FEDB32" d="M14.0056 18H11.1465L14.8633 31.125H17.7225L20.2623 22.5938L22.9642 31.125H25.6803L29.2542 18H26.4428L24.2193 26.3906L21.6299 18H18.9138L16.3406 26.2452L14.0056 18Z"/><path fill="#FEDB32" d="M29.2542 24.0938L30.8744 18H32.1134V26.3438C32.1134 27.5864 33.1374 28.5938 34.4007 28.5938H35.3537C36.6169 28.5938 37.641 27.5864 37.641 26.3438V18H40.5001V26.3438C40.5001 29.1915 38.1533 31.5 35.2584 31.5H34.496C31.601 31.5 29.2542 29.1915 29.2542 26.3438V24.0938Z"/></g></g></svg>

<svg xmlns="http://www.w3.org/2000/svg" fill="none" aria-hidden="true" viewBox="0 0 48 48"><circle cx="24" cy="24" r="21" fill="#0B0006"/><path fill="#FFFDFE" d="M6 18h.953l3.717 13.125h-.953L6 18Zm2.573 0h.953l3.717 13.125h-.953L8.573 18Z"/><path fill="#FEDB32" d="M14.006 18h-2.86l3.717 13.125h2.86l2.54-8.531 2.701 8.531h2.716L29.254 18h-2.811l-2.224 8.39L21.63 18h-2.715l-2.573 8.245L14.006 18Zm15.248 6.094L30.874 18h1.24v8.344c0 1.242 1.023 2.25 2.287 2.25h.953c1.263 0 2.287-1.008 2.287-2.25V18h2.86v8.344c0 2.848-2.348 5.156-5.243 5.156h-.762c-2.895 0-5.242-2.308-5.242-5.156v-2.25Z"/></svg>
